images/3234413.svg

<?xml version="1.0" encoding="UTF-8"?>
<svg xmlns="http://www.w3.org/2000/svg" xmlns:xlink="http://www.w3.org/1999/xlink" width="300pt" height="300pt" viewBox="0 0 300 300" version="1.1">
<defs>
<g>
<symbol overflow="visible" id="glyph0-0">
<path style="stroke:none;" d="M 0.453125 1.59375 L 0.453125 -6.34375 L 4.953125 -6.34375 L 4.953125 1.59375 Z M 0.953125 1.09375 L 4.453125 1.09375 L 4.453125 -5.84375 L 0.953125 -5.84375 Z M 0.953125 1.09375 "/>
</symbol>
<symbol overflow="visible" id="glyph0-1">
<path style="stroke:none;" d="M 3.546875 -5.953125 C 2.898438 -5.953125 2.382812 -5.710938 2 -5.234375 C 1.625 -4.753906 1.4375 -4.101562 1.4375 -3.28125 C 1.4375 -2.445312 1.625 -1.789062 2 -1.3125 C 2.382812 -0.832031 2.898438 -0.59375 3.546875 -0.59375 C 4.191406 -0.59375 4.703125 -0.832031 5.078125 -1.3125 C 5.453125 -1.789062 5.640625 -2.445312 5.640625 -3.28125 C 5.640625 -4.101562 5.453125 -4.753906 5.078125 -5.234375 C 4.703125 -5.710938 4.191406 -5.953125 3.546875 -5.953125 Z M 3.546875 -6.6875 C 4.460938 -6.6875 5.195312 -6.375 5.75 -5.75 C 6.300781 -5.132812 6.578125 -4.3125 6.578125 -3.28125 C 6.578125 -2.238281 6.300781 -1.410156 5.75 -0.796875 C 5.195312 -0.179688 4.460938 0.125 3.546875 0.125 C 2.617188 0.125 1.878906 -0.179688 1.328125 -0.796875 C 0.773438 -1.410156 0.5 -2.238281 0.5 -3.28125 C 0.5 -4.3125 0.773438 -5.132812 1.328125 -5.75 C 1.878906 -6.375 2.617188 -6.6875 3.546875 -6.6875 Z M 3.546875 -6.6875 "/>
</symbol>
<symbol overflow="visible" id="glyph0-2">
<path style="stroke:none;" d="M 0.890625 -6.5625 L 2.078125 -6.5625 L 4.984375 -1.078125 L 4.984375 -6.5625 L 5.84375 -6.5625 L 5.84375 0 L 4.65625 0 L 1.75 -5.484375 L 1.75 0 L 0.890625 0 Z M 0.890625 -6.5625 "/>
</symbol>
<symbol overflow="visible" id="glyph0-3">
<path style="stroke:none;" d="M 0.890625 -6.5625 L 1.765625 -6.5625 L 1.765625 -3.875 L 5 -3.875 L 5 -6.5625 L 5.890625 -6.5625 L 5.890625 0 L 5 0 L 5 -3.125 L 1.765625 -3.125 L 1.765625 0 L 0.890625 0 Z M 0.890625 -6.5625 "/>
</symbol>
<symbol overflow="visible" id="glyph0-4">
<path style="stroke:none;" d="M 4.8125 -6.34375 L 4.8125 -5.484375 C 4.476562 -5.640625 4.160156 -5.753906 3.859375 -5.828125 C 3.566406 -5.910156 3.28125 -5.953125 3 -5.953125 C 2.507812 -5.953125 2.132812 -5.859375 1.875 -5.671875 C 1.613281 -5.484375 1.484375 -5.21875 1.484375 -4.875 C 1.484375 -4.582031 1.570312 -4.363281 1.75 -4.21875 C 1.925781 -4.070312 2.253906 -3.953125 2.734375 -3.859375 L 3.28125 -3.75 C 3.9375 -3.625 4.421875 -3.398438 4.734375 -3.078125 C 5.054688 -2.765625 5.21875 -2.34375 5.21875 -1.8125 C 5.21875 -1.175781 5.003906 -0.691406 4.578125 -0.359375 C 4.148438 -0.0351562 3.523438 0.125 2.703125 0.125 C 2.390625 0.125 2.054688 0.0859375 1.703125 0.015625 C 1.359375 -0.046875 1 -0.148438 0.625 -0.296875 L 0.625 -1.203125 C 0.976562 -1.003906 1.328125 -0.851562 1.671875 -0.75 C 2.023438 -0.644531 2.367188 -0.59375 2.703125 -0.59375 C 3.203125 -0.59375 3.585938 -0.691406 3.859375 -0.890625 C 4.140625 -1.085938 4.28125 -1.375 4.28125 -1.75 C 4.28125 -2.070312 4.179688 -2.320312 3.984375 -2.5 C 3.785156 -2.675781 3.460938 -2.8125 3.015625 -2.90625 L 2.46875 -3.015625 C 1.8125 -3.148438 1.332031 -3.359375 1.03125 -3.640625 C 0.738281 -3.921875 0.59375 -4.3125 0.59375 -4.8125 C 0.59375 -5.382812 0.796875 -5.835938 1.203125 -6.171875 C 1.609375 -6.515625 2.171875 -6.6875 2.890625 -6.6875 C 3.203125 -6.6875 3.515625 -6.65625 3.828125 -6.59375 C 4.148438 -6.539062 4.476562 -6.457031 4.8125 -6.34375 Z M 4.8125 -6.34375 "/>
</symbol>
</g>
</defs>
<g id="surface43981">
<rect x="0" y="0" width="300" height="300" style="fill:rgb(100%,100%,100%);fill-opacity:1;stroke:none;"/>
<path style="fill:none;stroke-width:1.2;stroke-linecap:butt;stroke-linejoin:miter;stroke:rgb(0%,0%,0%);stroke-opacity:1;stroke-miterlimit:10;" d="M 35.25 106.796875 L 37.621094 116.304688 "/>
<path style="fill:none;stroke-width:1.2;stroke-linecap:butt;stroke-linejoin:miter;stroke:rgb(100%,0%,0%);stroke-opacity:1;stroke-miterlimit:10;" d="M 37.621094 116.304688 L 39.996094 125.816406 "/>
<path style="fill:none;stroke-width:1.2;stroke-linecap:butt;stroke-linejoin:miter;stroke:rgb(100%,0%,0%);stroke-opacity:1;stroke-miterlimit:10;" d="M 39.996094 125.816406 L 49.417969 128.515625 "/>
<path style="fill:none;stroke-width:1.2;stroke-linecap:butt;stroke-linejoin:miter;stroke:rgb(0%,0%,0%);stroke-opacity:1;stroke-miterlimit:10;" d="M 49.417969 128.515625 L 58.839844 131.21875 "/>
<path style=" stroke:none;fill-rule:nonzero;fill:rgb(100%,100%,100%);fill-opacity:1;" d="M 35.996094 120.316406 L 43.996094 120.316406 L 43.996094 131.316406 L 35.996094 131.316406 Z M 35.996094 120.316406 "/>
<g style="fill:rgb(100%,0%,0%);fill-opacity:1;">
  <use xlink:href="#glyph0-1" x="35.996094" y="128.979492"/>
</g>
<path style="fill:none;stroke-width:1.2;stroke-linecap:butt;stroke-linejoin:miter;stroke:rgb(0%,0%,0%);stroke-opacity:1;stroke-miterlimit:10;" d="M 58.839844 131.21875 L 72.9375 117.597656 "/>
<path style="fill:none;stroke-width:1.2;stroke-linecap:butt;stroke-linejoin:miter;stroke:rgb(0%,0%,0%);stroke-opacity:1;stroke-miterlimit:10;" d="M 63.453125 133.171875 L 74.734375 122.277344 "/>
<path style="fill:none;stroke-width:1.2;stroke-linecap:butt;stroke-linejoin:miter;stroke:rgb(0%,0%,0%);stroke-opacity:1;stroke-miterlimit:10;" d="M 63.585938 150.238281 L 58.839844 131.21875 "/>
<path style="fill:none;stroke-width:1.2;stroke-linecap:butt;stroke-linejoin:miter;stroke:rgb(0%,0%,0%);stroke-opacity:1;stroke-miterlimit:10;" d="M 72.9375 117.597656 L 91.785156 122.996094 "/>
<path style="fill:none;stroke-width:1.2;stroke-linecap:butt;stroke-linejoin:miter;stroke:rgb(0%,0%,0%);stroke-opacity:1;stroke-miterlimit:10;" d="M 91.785156 122.996094 L 96.53125 142.019531 "/>
<path style="fill:none;stroke-width:1.2;stroke-linecap:butt;stroke-linejoin:miter;stroke:rgb(0%,0%,0%);stroke-opacity:1;stroke-miterlimit:10;" d="M 87.785156 126.015625 L 91.578125 141.234375 "/>
<path style="fill:none;stroke-width:1.2;stroke-linecap:butt;stroke-linejoin:miter;stroke:rgb(0%,0%,0%);stroke-opacity:1;stroke-miterlimit:10;" d="M 96.53125 142.019531 L 82.429688 155.636719 "/>
<path style="fill:none;stroke-width:1.2;stroke-linecap:butt;stroke-linejoin:miter;stroke:rgb(0%,0%,0%);stroke-opacity:1;stroke-miterlimit:10;" d="M 96.53125 142.019531 L 105.953125 144.71875 "/>
<path style="fill:none;stroke-width:1.2;stroke-linecap:butt;stroke-linejoin:miter;stroke:rgb(0%,0%,100%);stroke-opacity:1;stroke-miterlimit:10;" d="M 105.953125 144.71875 L 115.375 147.417969 "/>
<path style="fill:none;stroke-width:1.2;stroke-linecap:butt;stroke-linejoin:miter;stroke:rgb(0%,0%,0%);stroke-opacity:1;stroke-miterlimit:10;" d="M 82.429688 155.636719 L 63.585938 150.238281 "/>
<path style="fill:none;stroke-width:1.2;stroke-linecap:butt;stroke-linejoin:miter;stroke:rgb(0%,0%,0%);stroke-opacity:1;stroke-miterlimit:10;" d="M 81.816406 150.664062 L 66.742188 146.34375 "/>
<path style="fill:none;stroke-width:1.2;stroke-linecap:butt;stroke-linejoin:miter;stroke:rgb(0%,0%,100%);stroke-opacity:1;stroke-miterlimit:10;" d="M 115.375 147.417969 L 117.746094 156.929688 "/>
<path style="fill:none;stroke-width:1.2;stroke-linecap:butt;stroke-linejoin:miter;stroke:rgb(0%,0%,0%);stroke-opacity:1;stroke-miterlimit:10;" d="M 117.746094 156.929688 L 120.121094 166.4375 "/>
<path style=" stroke:none;fill-rule:nonzero;fill:rgb(100%,100%,100%);fill-opacity:1;" d="M 108.375 141.917969 L 122.375 141.917969 L 122.375 152.917969 L 108.375 152.917969 Z M 108.375 141.917969 "/>
<g style="fill:rgb(0%,0%,100%);fill-opacity:1;">
  <use xlink:href="#glyph0-2" x="108.375" y="150.581055"/>
  <use xlink:href="#glyph0-3" x="115.352539" y="150.581055"/>
</g>
<path style="fill:none;stroke-width:1.2;stroke-linecap:butt;stroke-linejoin:miter;stroke:rgb(0%,0%,0%);stroke-opacity:1;stroke-miterlimit:10;" d="M 118.515625 164.78125 L 111.46875 171.589844 "/>
<path style="fill:none;stroke-width:1.2;stroke-linecap:butt;stroke-linejoin:miter;stroke:rgb(100%,0%,0%);stroke-opacity:1;stroke-miterlimit:10;" d="M 111.46875 171.589844 L 104.417969 178.398438 "/>
<path style="fill:none;stroke-width:1.2;stroke-linecap:butt;stroke-linejoin:miter;stroke:rgb(0%,0%,0%);stroke-opacity:1;stroke-miterlimit:10;" d="M 121.722656 168.097656 L 114.671875 174.90625 "/>
<path style="fill:none;stroke-width:1.2;stroke-linecap:butt;stroke-linejoin:miter;stroke:rgb(100%,0%,0%);stroke-opacity:1;stroke-miterlimit:10;" d="M 114.671875 174.90625 L 107.621094 181.71875 "/>
<path style="fill:none;stroke-width:1.2;stroke-linecap:butt;stroke-linejoin:miter;stroke:rgb(0%,0%,0%);stroke-opacity:1;stroke-miterlimit:10;" d="M 120.121094 166.4375 L 129.542969 169.140625 "/>
<path style="fill:none;stroke-width:1.2;stroke-linecap:butt;stroke-linejoin:miter;stroke:rgb(0%,0%,100%);stroke-opacity:1;stroke-miterlimit:10;" d="M 129.542969 169.140625 L 138.964844 171.839844 "/>
<path style=" stroke:none;fill-rule:nonzero;fill:rgb(100%,100%,100%);fill-opacity:1;" d="M 98.019531 174.558594 L 106.019531 174.558594 L 106.019531 185.558594 L 98.019531 185.558594 Z M 98.019531 174.558594 "/>
<g style="fill:rgb(100%,0%,0%);fill-opacity:1;">
  <use xlink:href="#glyph0-1" x="98.019531" y="183.22168"/>
</g>
<path style="fill:none;stroke-width:1.2;stroke-linecap:butt;stroke-linejoin:miter;stroke:rgb(0%,0%,100%);stroke-opacity:1;stroke-miterlimit:10;" d="M 138.964844 171.839844 L 141.335938 181.347656 "/>
<path style="fill:none;stroke-width:1.2;stroke-linecap:butt;stroke-linejoin:miter;stroke:rgb(0%,0%,0%);stroke-opacity:1;stroke-miterlimit:10;" d="M 141.335938 181.347656 L 143.710938 190.859375 "/>
<path style="fill:none;stroke-width:1.2;stroke-linecap:butt;stroke-linejoin:miter;stroke:rgb(0%,0%,0%);stroke-opacity:1;stroke-miterlimit:10;" d="M 153.0625 158.21875 L 146.015625 165.027344 "/>
<path style="fill:none;stroke-width:1.2;stroke-linecap:butt;stroke-linejoin:miter;stroke:rgb(0%,0%,100%);stroke-opacity:1;stroke-miterlimit:10;" d="M 146.015625 165.027344 L 138.964844 171.839844 "/>
<path style=" stroke:none;fill-rule:nonzero;fill:rgb(100%,100%,100%);fill-opacity:1;" d="M 135.964844 166.339844 L 142.964844 166.339844 L 142.964844 177.339844 L 135.964844 177.339844 Z M 135.964844 166.339844 "/>
<g style="fill:rgb(0%,0%,100%);fill-opacity:1;">
  <use xlink:href="#glyph0-2" x="135.964844" y="175.00293"/>
</g>
<path style="fill:none;stroke-width:1.2;stroke-linecap:butt;stroke-linejoin:miter;stroke:rgb(0%,0%,0%);stroke-opacity:1;stroke-miterlimit:10;" d="M 143.710938 190.859375 L 162.554688 196.257812 "/>
<path style="fill:none;stroke-width:1.2;stroke-linecap:butt;stroke-linejoin:miter;stroke:rgb(0%,0%,0%);stroke-opacity:1;stroke-miterlimit:10;" d="M 162.554688 196.257812 L 176.652344 182.640625 "/>
<path style="fill:none;stroke-width:1.2;stroke-linecap:butt;stroke-linejoin:miter;stroke:rgb(0%,0%,0%);stroke-opacity:1;stroke-miterlimit:10;" d="M 176.652344 182.640625 L 171.910156 163.621094 "/>
<path style="fill:none;stroke-width:1.2;stroke-linecap:butt;stroke-linejoin:miter;stroke:rgb(0%,0%,0%);stroke-opacity:1;stroke-miterlimit:10;" d="M 171.910156 163.621094 L 153.0625 158.21875 "/>
<path style="fill:none;stroke-width:1.2;stroke-linecap:butt;stroke-linejoin:miter;stroke:rgb(0%,0%,0%);stroke-opacity:1;stroke-miterlimit:10;" d="M 171.910156 163.621094 L 190.753906 169.019531 "/>
<path style="fill:none;stroke-width:1.2;stroke-linecap:butt;stroke-linejoin:miter;stroke:rgb(0%,0%,0%);stroke-opacity:1;stroke-miterlimit:10;" d="M 167.164062 144.597656 L 171.910156 163.621094 "/>
<path style="fill:none;stroke-width:1.2;stroke-linecap:butt;stroke-linejoin:miter;stroke:rgb(0%,0%,0%);stroke-opacity:1;stroke-miterlimit:10;" d="M 190.753906 169.019531 L 204.851562 155.402344 "/>
<path style="fill:none;stroke-width:1.2;stroke-linecap:butt;stroke-linejoin:miter;stroke:rgb(0%,0%,0%);stroke-opacity:1;stroke-miterlimit:10;" d="M 204.851562 155.402344 L 202.480469 145.890625 "/>
<path style="fill:none;stroke-width:1.2;stroke-linecap:butt;stroke-linejoin:miter;stroke:rgb(0%,0%,100%);stroke-opacity:1;stroke-miterlimit:10;" d="M 202.480469 145.890625 L 200.105469 136.378906 "/>
<path style="fill:none;stroke-width:1.2;stroke-linecap:butt;stroke-linejoin:miter;stroke:rgb(0%,0%,100%);stroke-opacity:1;stroke-miterlimit:10;" d="M 200.105469 136.378906 L 190.683594 133.679688 "/>
<path style="fill:none;stroke-width:1.2;stroke-linecap:butt;stroke-linejoin:miter;stroke:rgb(0%,0%,0%);stroke-opacity:1;stroke-miterlimit:10;" d="M 190.683594 133.679688 L 181.261719 130.980469 "/>
<path style="fill:none;stroke-width:1.2;stroke-linecap:butt;stroke-linejoin:miter;stroke:rgb(0%,0%,100%);stroke-opacity:1;stroke-miterlimit:10;" d="M 200.105469 136.378906 L 207.15625 129.570312 "/>
<path style="fill:none;stroke-width:1.2;stroke-linecap:butt;stroke-linejoin:miter;stroke:rgb(0%,0%,0%);stroke-opacity:1;stroke-miterlimit:10;" d="M 207.15625 129.570312 L 214.207031 122.761719 "/>
<path style=" stroke:none;fill-rule:nonzero;fill:rgb(100%,100%,100%);fill-opacity:1;" d="M 197.105469 130.878906 L 204.105469 130.878906 L 204.105469 141.878906 L 197.105469 141.878906 Z M 197.105469 130.878906 "/>
<g style="fill:rgb(0%,0%,100%);fill-opacity:1;">
  <use xlink:href="#glyph0-2" x="197.105469" y="139.541992"/>
</g>
<path style="fill:none;stroke-width:1.2;stroke-linecap:butt;stroke-linejoin:miter;stroke:rgb(0%,0%,0%);stroke-opacity:1;stroke-miterlimit:10;" d="M 181.261719 130.980469 L 167.164062 144.597656 "/>
<path style="fill:none;stroke-width:1.2;stroke-linecap:butt;stroke-linejoin:miter;stroke:rgb(0%,0%,0%);stroke-opacity:1;stroke-miterlimit:10;" d="M 216.445312 122.203125 L 214.070312 112.691406 "/>
<path style="fill:none;stroke-width:1.2;stroke-linecap:butt;stroke-linejoin:miter;stroke:rgb(100%,0%,0%);stroke-opacity:1;stroke-miterlimit:10;" d="M 214.070312 112.691406 L 211.699219 103.183594 "/>
<path style="fill:none;stroke-width:1.2;stroke-linecap:butt;stroke-linejoin:miter;stroke:rgb(0%,0%,0%);stroke-opacity:1;stroke-miterlimit:10;" d="M 211.96875 123.320312 L 209.597656 113.808594 "/>
<path style="fill:none;stroke-width:1.2;stroke-linecap:butt;stroke-linejoin:miter;stroke:rgb(100%,0%,0%);stroke-opacity:1;stroke-miterlimit:10;" d="M 209.597656 113.808594 L 207.222656 104.296875 "/>
<path style="fill:none;stroke-width:1.2;stroke-linecap:butt;stroke-linejoin:miter;stroke:rgb(0%,0%,0%);stroke-opacity:1;stroke-miterlimit:10;" d="M 214.207031 122.761719 L 233.050781 128.160156 "/>
<path style=" stroke:none;fill-rule:nonzero;fill:rgb(100%,100%,100%);fill-opacity:1;" d="M 205.460938 98.242188 L 213.460938 98.242188 L 213.460938 109.242188 L 205.460938 109.242188 Z M 205.460938 98.242188 "/>
<g style="fill:rgb(100%,0%,0%);fill-opacity:1;">
  <use xlink:href="#glyph0-1" x="205.460938" y="106.905273"/>
</g>
<path style="fill:none;stroke-width:1.2;stroke-linecap:butt;stroke-linejoin:miter;stroke:rgb(0%,0%,0%);stroke-opacity:1;stroke-miterlimit:10;" d="M 233.050781 128.160156 L 248.496094 116.089844 "/>
<path style="fill:none;stroke-width:1.2;stroke-linecap:butt;stroke-linejoin:miter;stroke:rgb(0%,0%,0%);stroke-opacity:1;stroke-miterlimit:10;" d="M 237.4375 130.589844 L 249.792969 120.929688 "/>
<path style="fill:none;stroke-width:1.2;stroke-linecap:butt;stroke-linejoin:miter;stroke:rgb(0%,0%,100%);stroke-opacity:1;stroke-miterlimit:10;" d="M 239.757812 146.582031 L 236.40625 137.371094 "/>
<path style="fill:none;stroke-width:1.2;stroke-linecap:butt;stroke-linejoin:miter;stroke:rgb(0%,0%,0%);stroke-opacity:1;stroke-miterlimit:10;" d="M 236.40625 137.371094 L 233.050781 128.160156 "/>
<path style="fill:none;stroke-width:1.2;stroke-linecap:butt;stroke-linejoin:miter;stroke:rgb(0%,0%,0%);stroke-opacity:1;stroke-miterlimit:10;" d="M 248.496094 116.089844 L 256.625 121.570312 "/>
<path style="fill:none;stroke-width:1.2;stroke-linecap:butt;stroke-linejoin:miter;stroke:rgb(80%,80%,0%);stroke-opacity:1;stroke-miterlimit:10;" d="M 256.625 121.570312 L 264.75 127.050781 "/>
<path style="fill:none;stroke-width:1.2;stroke-linecap:butt;stroke-linejoin:miter;stroke:rgb(80%,80%,0%);stroke-opacity:1;stroke-miterlimit:10;" d="M 264.75 127.050781 L 262.050781 136.472656 "/>
<path style="fill:none;stroke-width:1.2;stroke-linecap:butt;stroke-linejoin:miter;stroke:rgb(0%,0%,100%);stroke-opacity:1;stroke-miterlimit:10;" d="M 262.050781 136.472656 L 259.347656 145.894531 "/>
<path style=" stroke:none;fill-rule:nonzero;fill:rgb(100%,100%,100%);fill-opacity:1;" d="M 261.75 121.550781 L 267.75 121.550781 L 267.75 132.550781 L 261.75 132.550781 Z M 261.75 121.550781 "/>
<g style="fill:rgb(80%,80%,0%);fill-opacity:1;">
  <use xlink:href="#glyph0-4" x="261.75" y="130.213867"/>
</g>
<path style="fill:none;stroke-width:1.2;stroke-linecap:butt;stroke-linejoin:miter;stroke:rgb(0%,0%,100%);stroke-opacity:1;stroke-miterlimit:10;" d="M 259.347656 145.894531 L 239.757812 146.582031 "/>
<path style="fill:none;stroke-width:1.2;stroke-linecap:butt;stroke-linejoin:miter;stroke:rgb(0%,0%,100%);stroke-opacity:1;stroke-miterlimit:10;" d="M 257.230469 141.351562 L 241.554688 141.902344 "/>
<path style=" stroke:none;fill-rule:nonzero;fill:rgb(100%,100%,100%);fill-opacity:1;" d="M 256.347656 140.394531 L 263.347656 140.394531 L 263.347656 151.394531 L 256.347656 151.394531 Z M 256.347656 140.394531 "/>
<g style="fill:rgb(0%,0%,100%);fill-opacity:1;">
  <use xlink:href="#glyph0-2" x="256.347656" y="149.057617"/>
</g>
<path style=" stroke:none;fill-rule:nonzero;fill:rgb(100%,100%,100%);fill-opacity:1;" d="M 236.757812 141.082031 L 243.757812 141.082031 L 243.757812 152.082031 L 236.757812 152.082031 Z M 236.757812 141.082031 "/>
<g style="fill:rgb(0%,0%,100%);fill-opacity:1;">
  <use xlink:href="#glyph0-2" x="236.757812" y="149.745117"/>
</g>
</g>
</svg>

<svg xmlns="http://www.w3.org/2000/svg" xmlns:xlink="http://www.w3.org/1999/xlink" width="300pt" height="300pt" viewBox="0 0 300 300"><defs><symbol overflow="visible"><path d="M.453 1.594v-7.938h4.5v7.938zm.5-.5h3.5v-6.938h-3.5zm0 0"/></symbol><symbol overflow="visible" id="a"><path d="M3.547-5.953c-.65 0-1.164.242-1.547.72-.375.48-.563 1.13-.563 1.952 0 .835.188 1.49.563 1.967.383.48.898.72 1.547.72.644 0 1.156-.24 1.53-.72.376-.476.564-1.132.564-1.968 0-.822-.187-1.474-.562-1.954-.375-.477-.887-.72-1.53-.72zm0-.734c.914 0 1.648.312 2.203.937.55.617.828 1.438.828 2.47 0 1.042-.277 1.87-.828 2.483-.555.617-1.29.922-2.203.922-.93 0-1.668-.305-2.22-.922C.774-1.41.5-2.237.5-3.28c0-1.033.273-1.853.828-2.47.55-.625 1.29-.938 2.22-.938zm0 0"/></symbol><symbol overflow="visible" id="b"><path d="M.89-6.563H2.08l2.906 5.485v-5.484h.86V0H4.656L1.75-5.484V0H.89zm0 0"/></symbol><symbol overflow="visible" id="c"><path d="M.89-6.563h.876v2.688H5v-2.688h.89V0H5v-3.125H1.766V0H.89zm0 0"/></symbol><symbol overflow="visible" id="d"><path d="M4.813-6.344v.86c-.336-.157-.653-.27-.954-.344-.294-.082-.58-.125-.86-.125-.492 0-.867.094-1.125.28-.262.19-.39.454-.39.798 0 .293.085.512.265.656.176.15.504.267.984.36l.547.11c.658.125 1.142.352 1.454.672.32.312.485.734.485 1.265 0 .637-.216 1.122-.642 1.454-.43.325-1.055.485-1.875.485-.312 0-.648-.04-1-.11C1.36-.046 1-.147.625-.296v-.906c.352.2.703.35 1.047.453.35.105.695.156 1.03.156.5 0 .884-.097 1.157-.297.28-.196.42-.485.42-.86 0-.32-.1-.57-.296-.75-.2-.176-.523-.313-.968-.406l-.547-.11C1.81-3.148 1.33-3.36 1.03-3.64.74-3.923.595-4.313.595-4.813c0-.57.203-1.024.61-1.36.405-.344.968-.516 1.687-.516.313 0 .626.032.938.094.32.055.65.137.985.25zm0 0"/></symbol></defs><g><path fill="#fff" d="M0 0h300v300H0z"/><path d="M35.25 106.797l2.37 9.508" stroke-width="1.2" stroke="#000" stroke-miterlimit="10" fill="none"/><path d="M37.62 116.305l2.376 9.51M39.996 125.816l9.422 2.7" stroke-width="1.2" stroke="#f00" stroke-miterlimit="10" fill="none"/><path d="M49.418 128.516l9.422 2.703" stroke-width="1.2" stroke="#000" stroke-miterlimit="10" fill="none"/><path d="M35.996 120.316h8v11h-8zm0 0" fill="#fff"/><use xlink:href="#a" x="35.996" y="128.979" fill="#f00"/><path d="M58.84 131.22l14.097-13.622M63.453 133.172l11.28-10.895M63.586 150.238l-4.746-19.02M72.938 117.598l18.847 5.398M91.785 122.996l4.746 19.024M87.785 126.016l3.793 15.218M96.53 142.02l-14.1 13.617M96.53 142.02l9.423 2.7" stroke-width="1.2" stroke="#000" stroke-miterlimit="10" fill="none"/><path d="M105.953 144.72l9.422 2.698" stroke-width="1.2" stroke="#00f" stroke-miterlimit="10" fill="none"/><path d="M82.43 155.637l-18.844-5.4M81.816 150.664l-15.074-4.32" stroke-width="1.2" stroke="#000" stroke-miterlimit="10" fill="none"/><path d="M115.375 147.418l2.37 9.512" stroke-width="1.2" stroke="#00f" stroke-miterlimit="10" fill="none"/><path d="M117.746 156.93l2.375 9.507" stroke-width="1.2" stroke="#000" stroke-miterlimit="10" fill="none"/><path d="M108.375 141.918h14v11h-14zm0 0" fill="#fff"/><g fill="#00f"><use xlink:href="#b" x="108.375" y="150.581"/><use xlink:href="#c" x="115.353" y="150.581"/></g><path d="M118.516 164.78l-7.047 6.81" stroke-width="1.2" stroke="#000" stroke-miterlimit="10" fill="none"/><path d="M111.47 171.59l-7.052 6.808" stroke-width="1.2" stroke="#f00" stroke-miterlimit="10" fill="none"/><path d="M121.723 168.098l-7.05 6.808" stroke-width="1.2" stroke="#000" stroke-miterlimit="10" fill="none"/><path d="M114.672 174.906l-7.05 6.813" stroke-width="1.2" stroke="#f00" stroke-miterlimit="10" fill="none"/><path d="M120.12 166.438l9.423 2.703" stroke-width="1.2" stroke="#000" stroke-miterlimit="10" fill="none"/><path d="M129.543 169.14l9.422 2.7" stroke-width="1.2" stroke="#00f" stroke-miterlimit="10" fill="none"/><path d="M98.02 174.56h8v11h-8zm0 0" fill="#fff"/><use xlink:href="#a" x="98.02" y="183.222" fill="#f00"/><path d="M138.965 171.84l2.37 9.508" stroke-width="1.2" stroke="#00f" stroke-miterlimit="10" fill="none"/><path d="M141.336 181.348l2.375 9.51M153.063 158.22l-7.047 6.807" stroke-width="1.2" stroke="#000" stroke-miterlimit="10" fill="none"/><path d="M146.016 165.027l-7.05 6.813" stroke-width="1.2" stroke="#00f" stroke-miterlimit="10" fill="none"/><path d="M135.965 166.34h7v11h-7zm0 0" fill="#fff"/><use xlink:href="#b" x="135.965" y="175.003" fill="#00f"/><path d="M143.71 190.86l18.845 5.398M162.555 196.258l14.097-13.617M176.652 182.64l-4.742-19.02M171.91 163.62l-18.847-5.4M171.91 163.62l18.844 5.4M167.164 144.598l4.746 19.023M190.754 169.02l14.098-13.618M204.852 155.402l-2.372-9.51" stroke-width="1.2" stroke="#000" stroke-miterlimit="10" fill="none"/><path d="M202.48 145.89l-2.375-9.51M200.105 136.38l-9.42-2.7" stroke-width="1.2" stroke="#00f" stroke-miterlimit="10" fill="none"/><path d="M190.684 133.68l-9.422-2.7" stroke-width="1.2" stroke="#000" stroke-miterlimit="10" fill="none"/><path d="M200.105 136.38l7.05-6.81" stroke-width="1.2" stroke="#00f" stroke-miterlimit="10" fill="none"/><path d="M207.156 129.57l7.05-6.808" stroke-width="1.2" stroke="#000" stroke-miterlimit="10" fill="none"/><path d="M197.105 130.88h7v11h-7zm0 0" fill="#fff"/><use xlink:href="#b" x="197.105" y="139.542" fill="#00f"/><path d="M181.262 130.98l-14.098 13.618M216.445 122.203l-2.375-9.512" stroke-width="1.2" stroke="#000" stroke-miterlimit="10" fill="none"/><path d="M214.07 112.69l-2.37-9.506" stroke-width="1.2" stroke="#f00" stroke-miterlimit="10" fill="none"/><path d="M211.97 123.32l-2.372-9.51" stroke-width="1.2" stroke="#000" stroke-miterlimit="10" fill="none"/><path d="M209.598 113.81l-2.375-9.513" stroke-width="1.2" stroke="#f00" stroke-miterlimit="10" fill="none"/><path d="M214.207 122.762l18.844 5.398" stroke-width="1.2" stroke="#000" stroke-miterlimit="10" fill="none"/><path d="M205.46 98.242h8v11h-8zm0 0" fill="#fff"/><use xlink:href="#a" x="205.461" y="106.905" fill="#f00"/><path d="M233.05 128.16l15.446-12.07M237.438 130.59l12.355-9.66" stroke-width="1.2" stroke="#000" stroke-miterlimit="10" fill="none"/><path d="M239.758 146.582l-3.352-9.21" stroke-width="1.2" stroke="#00f" stroke-miterlimit="10" fill="none"/><path d="M236.406 137.37l-3.355-9.21M248.496 116.09l8.13 5.48" stroke-width="1.2" stroke="#000" stroke-miterlimit="10" fill="none"/><path d="M256.625 121.57l8.125 5.48M264.75 127.05l-2.7 9.423" stroke-width="1.2" stroke="#cc0" stroke-miterlimit="10" fill="none"/><path d="M262.05 136.473l-2.702 9.422" stroke-width="1.2" stroke="#00f" stroke-miterlimit="10" fill="none"/><path d="M261.75 121.55h6v11h-6zm0 0" fill="#fff"/><use xlink:href="#d" x="261.75" y="130.214" fill="#cc0"/><path d="M259.348 145.895l-19.59.687M257.23 141.352l-15.675.55" stroke-width="1.2" stroke="#00f" stroke-miterlimit="10" fill="none"/><path d="M256.348 140.395h7v11h-7zm0 0" fill="#fff"/><use xlink:href="#b" x="256.348" y="149.058" fill="#00f"/><path d="M236.758 141.082h7v11h-7zm0 0" fill="#fff"/><use xlink:href="#b" x="236.758" y="149.745" fill="#00f"/></g></svg>
